Src/Delivery/studio/bitmaps/src/mini/6/8.svg

<?xml version="1.0" encoding="UTF-8" standalone="no"?>
<svg
   xmlns:dc="http://purl.org/dc/elements/1.1/"
   xmlns:cc="http://creativecommons.org/ns#"
   xmlns:rdf="http://www.w3.org/1999/02/22-rdf-syntax-ns#"
   xmlns:svg="http://www.w3.org/2000/svg"
   xmlns="http://www.w3.org/2000/svg"
   xmlns:sodipodi="http://sodipodi.sourceforge.net/DTD/sodipodi-0.dtd"
   xmlns:inkscape="http://www.inkscape.org/namespaces/inkscape"
   height="100"
   viewBox="0 0 100 100"
   width="100"
   version="1.1"
   id="svg36"
   sodipodi:docname="25.svg"
   inkscape:version="0.92.3 (2405546, 2018-03-11)">
  <metadata
     id="metadata42">
    <rdf:RDF>
      <cc:Work
         rdf:about="">
        <dc:format>image/svg+xml</dc:format>
        <dc:type
           rdf:resource="http://purl.org/dc/dcmitype/StillImage" />
        <dc:title></dc:title>
      </cc:Work>
    </rdf:RDF>
  </metadata>
  <defs
     id="defs40" />
  <sodipodi:namedview
     pagecolor="#ffffff"
     bordercolor="#666666"
     borderopacity="1"
     objecttolerance="10"
     gridtolerance="10"
     guidetolerance="10"
     inkscape:pageopacity="0"
     inkscape:pageshadow="2"
     inkscape:window-width="1840"
     inkscape:window-height="1177"
     id="namedview38"
     showgrid="true"
     inkscape:zoom="2.36"
     inkscape:cx="50"
     inkscape:cy="50"
     inkscape:window-x="72"
     inkscape:window-y="-8"
     inkscape:window-maximized="1"
     inkscape:current-layer="svg36">
    <inkscape:grid
       type="xygrid"
       id="grid4582" />
  </sodipodi:namedview>
  <filter
     color-interpolation-filters="sRGB"
     id="grey">
    <feColorMatrix
       values="0.4 0.4 0.4 0 0 0.4 0.4 0.4 0 0 0.4 0.4 0.4 0 0 0 0 0 1 0"
       id="feColorMatrix2" />
  </filter>
  <filter
     color-interpolation-filters="sRGB"
     id="light">
    <feColorMatrix
       values="1 0 0 0.25 -0 0 1 0 0.25 -0 0 0 1 0.25 -0 0 0 0 1 0"
       id="feColorMatrix5" />
  </filter>
  <g
     id="g4595"
     transform="matrix(1.222269,0,0,1.222269,-8.655955,-18.559993)">
    <g
       transform="matrix(1.0056257,0,0,0.99251397,9.288561,-3.599683)"
       id="g18"
       style="filter:url(#light)">
      <path
         style="fill:#27c204;stroke:#005a1d;stroke-width:3.96875"
         inkscape:connector-curvature="0"
         id="path8"
         d="M 23.812502,96.824998 V 75.658331 H 2.6458334 V 54.491664 H 23.812502 V 33.324997 H 44.979168 V 54.491664 H 66.145836 V 75.658331 H 44.979168 v 21.166667 z" />
      <g
         style="fill:none;stroke:#ffffff;stroke-linecap:round"
         id="g16">
        <path
           style="opacity:0.7;stroke-width:4.10314417"
           inkscape:connector-curvature="0"
           id="path10"
           d="M 28.019449,75.658333 V 92.626064" />
        <path
           style="opacity:0.7;stroke-width:3.63450694"
           inkscape:connector-curvature="0"
           id="path12"
           d="M 6.8527784,58.48864 V 71.801807" />
        <path
           style="opacity:0.7;stroke-width:4.10314417"
           inkscape:connector-curvature="0"
           id="path14"
           d="M 28.019449,37.425931 V 54.393662" />
      </g>
    </g>
    <path
       transform="matrix(1.0056257,0,0,0.99251397,9.288561,-3.599683)"
       d="M 23.812502,96.824998 V 75.658331 H 2.6458334 V 54.491664 H 23.812502 V 33.324997 H 44.979168 V 54.491664 H 66.145836 V 75.658331 H 44.979168 v 21.166667 z"
       id="path20"
       inkscape:connector-curvature="0"
       style="fill:#6c6c6c;fill-opacity:1;stroke:#2e2e2e;stroke-width:3.96875;stroke-opacity:1;filter:url(#light)" />
    <g
       transform="matrix(1.0056257,0,0,0.99251397,9.288561,-3.599683)"
       id="g28"
       style="fill:none;stroke:#ffffff;stroke-linecap:round;filter:url(#light)">
      <path
         d="M 28.019449,75.658333 V 92.626064"
         id="path22"
         inkscape:connector-curvature="0"
         style="opacity:0.7;stroke-width:4.10314417" />
      <path
         d="M 6.8527784,58.48864 V 71.801807"
         id="path24"
         inkscape:connector-curvature="0"
         style="opacity:0.7;stroke-width:3.63450694" />
      <path
         d="M 28.019449,37.425931 V 54.393662"
         id="path26"
         inkscape:connector-curvature="0"
         style="opacity:0.7;stroke-width:4.10314417" />
    </g>
  </g>
</svg>

<?xml version="1.0" encoding="UTF-8"?>
<svg width="100" height="100" version="1.1" viewBox="0 0 100 100" xmlns="http://www.w3.org/2000/svg">
 <filter id="b" color-interpolation-filters="sRGB">
  <feColorMatrix values="0.4 0.4 0.4 0 0 0.4 0.4 0.4 0 0 0.4 0.4 0.4 0 0 0 0 0 1 0"/>
 </filter>
 <filter id="a" x="-.085854" y="-.037166" width="1.1828" height="1.0743" color-interpolation-filters="sRGB">
  <feColorMatrix values="1 0 0 0.25 -0 0 1 0 0.25 -0 0 0 1 0.25 -0 0 0 0 1 0"/>
 </filter>
 <g transform="matrix(1.2223 0 0 1.2223 -8.656 -18.56)">
  <g transform="matrix(1.0056 0 0 .99251 9.2886 -3.5997)" filter="url(#a)">
   <path d="m23.813 96.825v-21.167h-21.167v-21.167h21.167v-21.167h21.167v21.167h21.167v21.167h-21.167v21.167z" fill="#27c204" stroke="#005a1d" stroke-width="3.9688"/>
   <g fill="none" stroke="#fff" stroke-linecap="round">
    <path d="m28.019 75.658v16.968" opacity=".7" stroke-width="4.1031"/>
    <path d="m6.8528 58.489v13.313" opacity=".7" stroke-width="3.6345"/>
    <path d="m28.019 37.426v16.968" opacity=".7" stroke-width="4.1031"/>
   </g>
  </g>
  <path transform="matrix(1.0056 0 0 .99251 9.2886 -3.5997)" d="m23.813 96.825v-21.167h-21.167v-21.167h21.167v-21.167h21.167v21.167h21.167v21.167h-21.167v21.167z" fill="#6c6c6c" filter="url(#a)" stroke="#2e2e2e" stroke-width="3.9688"/>
  <g transform="matrix(1.0056 0 0 .99251 9.2886 -3.5997)" fill="none" filter="url(#a)" stroke="#fff" stroke-linecap="round">
   <path d="m28.019 75.658v16.968" opacity=".7" stroke-width="4.1031"/>
   <path d="m6.8528 58.489v13.313" opacity=".7" stroke-width="3.6345"/>
   <path d="m28.019 37.426v16.968" opacity=".7" stroke-width="4.1031"/>
  </g>
 </g>
</svg>
